svg/color/inx.svg

<?xml version="1.0" encoding="UTF-8" ?>
<!DOCTYPE svg PUBLIC "-//W3C//DTD SVG 1.1//EN" "http://www.w3.org/Graphics/SVG/1.1/DTD/svg11.dtd">
<svg width="250pt" height="250pt" viewBox="0 0 250 250" version="1.1" xmlns="http://www.w3.org/2000/svg">
<g id="#ffffffff">
<path fill="#ffffff" opacity="1.00" d=" M 0.00 0.00 L 250.00 0.00 L 250.00 250.00 L 0.00 250.00 L 0.00 0.00 M 24.13 55.98 C 18.46 63.12 12.11 69.76 6.74 77.10 C 68.50 77.24 130.26 77.10 192.02 77.18 C 198.74 77.07 204.13 84.79 201.53 91.01 C 200.22 94.94 196.30 98.23 192.02 97.76 C 162.92 97.71 133.82 97.84 104.73 97.69 C 104.03 98.98 104.49 100.54 104.36 101.94 C 104.43 126.13 104.23 150.33 104.46 174.50 C 117.01 186.96 129.54 199.44 142.02 211.97 C 142.80 212.71 143.36 213.80 144.54 213.94 C 144.50 188.83 144.59 163.71 144.50 138.59 L 144.94 138.31 C 161.98 138.32 179.01 138.37 196.04 138.29 C 198.12 137.19 200.78 138.05 202.98 137.06 C 220.96 133.21 236.46 118.50 240.59 100.49 C 240.74 100.45 241.05 100.37 241.20 100.33 C 241.16 99.23 241.28 98.12 241.47 97.04 C 245.53 77.50 236.56 56.07 219.70 45.31 C 210.73 39.15 199.74 36.68 189.01 36.78 C 139.61 36.76 90.21 36.81 40.82 36.75 C 34.77 42.63 29.81 49.69 24.13 55.98 Z" />
</g>
<g id="#21489dff">
<path fill="#21489d" opacity="1.00" d=" M 24.13 55.98 C 29.81 49.69 34.77 42.63 40.82 36.75 C 90.21 36.81 139.61 36.76 189.01 36.78 C 199.74 36.68 210.73 39.15 219.70 45.31 C 236.56 56.07 245.53 77.50 241.47 97.04 C 241.28 98.12 241.16 99.23 241.20 100.33 C 241.05 100.37 240.74 100.45 240.59 100.49 C 236.46 118.50 220.96 133.21 202.98 137.06 C 200.78 138.05 198.12 137.19 196.04 138.29 C 179.01 138.37 161.98 138.32 144.94 138.31 L 144.50 138.59 C 144.59 163.71 144.50 188.83 144.54 213.94 C 143.36 213.80 142.80 212.71 142.02 211.97 C 129.54 199.44 117.01 186.96 104.46 174.50 C 104.23 150.33 104.43 126.13 104.36 101.94 C 104.49 100.54 104.03 98.98 104.73 97.69 C 133.82 97.84 162.92 97.71 192.02 97.76 C 196.30 98.23 200.22 94.94 201.53 91.01 C 204.13 84.79 198.74 77.07 192.02 77.18 C 130.26 77.10 68.50 77.24 6.74 77.10 C 12.11 69.76 18.46 63.12 24.13 55.98 Z" />
</g>
</svg>

<?xml version="1.0" encoding="utf-8"?>
<!-- Generator: Adobe Illustrator 26.0.3, SVG Export Plug-In . SVG Version: 6.00 Build 0)  -->
<svg version="1.1" id="Layer_1" xmlns="http://www.w3.org/2000/svg" xmlns:xlink="http://www.w3.org/1999/xlink" x="0px" y="0px"
	 viewBox="0 0 250 250" style="enable-background:new 0 0 250 250;" xml:space="preserve">
<style type="text/css">
	.st0{fill:#21489D;}
</style>
<g id="_x23_21489dff">
	<path class="st0" d="M24.1,56c5.7-6.3,10.6-13.3,16.7-19.2c49.4,0.1,98.8,0,148.2,0c10.7-0.1,21.7,2.4,30.7,8.5
		c16.9,10.8,25.8,32.2,21.8,51.7c-0.2,1.1-0.3,2.2-0.3,3.3c-0.1,0-0.5,0.1-0.6,0.2c-4.1,18-19.6,32.7-37.6,36.6
		c-2.2,1-4.9,0.1-6.9,1.2c-17,0.1-34.1,0-51.1,0l-0.4,0.3c0.1,25.1,0,50.2,0,75.4c-1.2-0.1-1.7-1.2-2.5-2
		c-12.5-12.5-25-25-37.6-37.5c-0.2-24.2,0-48.4-0.1-72.6c0.1-1.4-0.3-3,0.4-4.2c29.1,0.1,58.2,0,87.3,0.1c4.3,0.5,8.2-2.8,9.5-6.8
		c2.6-6.2-2.8-13.9-9.5-13.8c-61.8-0.1-123.5,0.1-185.3-0.1C12.1,69.8,18.5,63.1,24.1,56z"/>
</g>
</svg>
